X: 352
T: Hame O'er
C: Bert Murray
R: strathspey
B: Bert Murray's "Bon Accord Collection" 1999 p.35
%
Z: 2011 John Chambers <jc:trillian.mit.edu>
M: C
L: 1/16
K: Bb
uF4 |\
B4 (.B3.F) DF3 B3c | d3Bd3f b4 (.b3.g) | f3bd3f B3df3B | Gc3 c3B ABcA F3A |
B4 (.B3.F) DF3 B3c | d3Bd3f b4 (.b3.f) | gfga b3g f3dB3F | GE3 c3A B4 ||
uD4 |\
B,4 (.B,3.C) DF3 B3A | GB3 B3G FD3 D3F | G3Be3G F3Bd3B | Gc3 c3B ABcA F3D |
B,4 (.B,3.C) DF3 B3A | G3Be3g f4 (.d3.f) | gfga b3g f3dB3F | GE3 c3A B4 |]
